X:504
T:Reel du Pendu
T:Hanged Man's Reel
B:Fiddle Music of P.E.I., Perlman
O:Canada
Z:Nigel Gatherer
M:4/4
L:1/8
K:G
A | B3 B  BcBA | GABG AGBG | AGAB cBAG |
    AB-BB- BcBA | GABG AGBG | AFDF G3  :|
E | DGGF GFGB | AFAc B2 B2 | DGGF G2 GB | AFDA G3 :|]
